symbols/be/PVA-{90}.svg

<?xml version="1.0" encoding="UTF-8" standalone="no"?>
<!-- Initially created with Inkscape, optimized by hand -->

<svg
   version="1.1"
   width="20"
   height="17.320995"
   id="svg1"
   xmlns="http://www.w3.org/2000/svg"
   xmlns:svg="http://www.w3.org/2000/svg">
  <defs
     id="defs1" />
  <path
     id="Fond"
     d="M 20,-1.2580566e-6 H 3.1098633e-6 L 10.000003,17.320999 Z"
     fill="#edd827"
     style="stroke-width:0.1" />
  <path
     d="m 11.781343,5.3228317 v -1.418671 c 0,-0.896003 -0.896003,-1.429338 -1.781339,-1.429338 -0.8853359,0 -1.7813389,0.533335 -1.7813389,1.429338 v 1.418671 c 0,0.426668 0.096,0.714669 0.405335,1.024003 0.298667,0.309335 0.597335,0.394668 1.024003,0.394668 H 10.82134 c -0.128,0.426668 -0.245334,0.640002 -0.490668,1.013337 -0.4906679,0.736002 -0.9600029,0.949336 -1.2693379,1.184003 -0.16,0.117334 -0.181333,0.362668 -0.07467,0.522669 0.149333,0.192 0.362667,0.181334 0.512001,0.05333 0.362668,-0.277334 1.0240029,-0.757335 1.4506709,-1.418671 0.544002,-0.832003 0.832003,-1.685339 0.832003,-2.773342 z m -0.714669,0 c 0,0.138667 0,0.202667 -0.01067,0.341334 -0.02133,0.138668 -0.032,0.234668 -0.064,0.373335 H 9.6586701 c -0.213334,0 -0.352001,-0.04267 -0.512002,-0.192001 -0.16,-0.149334 -0.213334,-0.298667 -0.213334,-0.512001 v -1.418671 c 0,-0.501335 0.565335,-0.714669 1.0666699,-0.714669 0.501335,0 1.06667,0.213334 1.06667,0.714669 z"
     id="text1"
     style="font-size:10.6667px;font-family:Isonorm;-inkscape-font-specification:'Isonorm, Normal';fill-rule:evenodd;stroke-width:0.08"
     aria-label="9" />
</svg>

<?xml version="1.0" encoding="UTF-8"?>
<svg xmlns="http://www.w3.org/2000/svg" xmlns:xlink="http://www.w3.org/1999/xlink" width="20" height="17.320995" viewBox="0 0 20 17.320995">
<path fill-rule="nonzero" fill="rgb(92.941176%, 84.705882%, 15.294118%)" fill-opacity="1" d="M 20 0 L 0 0 L 10 17.320312 Z M 20 0 "/>
<path fill-rule="evenodd" fill="rgb(0%, 0%, 0%)" fill-opacity="1" d="M 11.78125 5.324219 L 11.78125 3.902344 C 11.78125 3.007812 10.886719 2.476562 10 2.476562 C 9.113281 2.476562 8.21875 3.007812 8.21875 3.902344 L 8.21875 5.324219 C 8.21875 5.75 8.316406 6.039062 8.625 6.347656 C 8.921875 6.65625 9.222656 6.742188 9.648438 6.742188 L 10.820312 6.742188 C 10.691406 7.167969 10.574219 7.382812 10.332031 7.753906 C 9.839844 8.492188 9.371094 8.703125 9.0625 8.9375 C 8.902344 9.054688 8.878906 9.300781 8.988281 9.460938 C 9.136719 9.652344 9.347656 9.644531 9.5 9.515625 C 9.863281 9.238281 10.523438 8.757812 10.949219 8.097656 C 11.492188 7.265625 11.78125 6.410156 11.78125 5.324219 Z M 11.066406 5.324219 C 11.066406 5.460938 11.066406 5.527344 11.054688 5.664062 C 11.035156 5.804688 11.023438 5.898438 10.992188 6.039062 L 9.660156 6.039062 C 9.445312 6.039062 9.308594 5.996094 9.148438 5.84375 C 8.988281 5.695312 8.933594 5.546875 8.933594 5.332031 L 8.933594 3.914062 C 8.933594 3.414062 9.5 3.199219 10 3.199219 C 10.5 3.199219 11.066406 3.414062 11.066406 3.914062 Z M 11.066406 5.324219 "/>
</svg>
